X: 1
T: A Barrel Of Knives
R: jig
M: 6/8
L: 1/8
K: Dmix
A|ced cAG|ABA ~g3|ced cAG|ABA FDD|
ced cAG|ABA ~g3|bag fdc|dAG FDD:|
~g3 edc|ded cAF|G2 B dBG|ABA FDD|
~g3 edc|ded ceg|bag fdc|dAG FDD:|

